src/images/icons/filter-categories/filter-category-food.svg

<?xml version="1.0" encoding="UTF-8"?>
<svg width="40px" height="40px" viewBox="0 0 40 40" version="1.1" xmlns="http://www.w3.org/2000/svg" xmlns:xlink="http://www.w3.org/1999/xlink">
    <!-- Generator: Sketch 49.3 (51167) - http://www.bohemiancoding.com/sketch -->
    <title>filter-category-13</title>
    <desc>Created with Sketch.</desc>
    <g id="Symbols" stroke="none" stroke-width="1" fill="none" fill-rule="evenodd">
        <g id="Elements-/-Sort-/-Card-/-~Parts-/-Icon_12">
            <mask id="mask-2" fill="white">
                <path d="M38.0645161,21.9354839 L38.0645161,13.5483871 C38.0645161,12.4812903 37.196129,11.6129032 36.1290323,11.6129032 L34.8387097,11.6129032 C34.3412903,11.6129032 33.8916129,11.8070968 33.5483871,12.116129 C33.2051613,11.8064516 32.7554839,11.6129032 32.2580645,11.6129032 L30.9677419,11.6129032 C30.4703226,11.6129032 30.0206452,11.8070968 29.6774194,12.116129 C29.3341935,11.8064516 28.8845161,11.6129032 28.3870968,11.6129032 L27.0967742,11.6129032 C26.0296774,11.6129032 25.1612903,12.4812903 25.1612903,13.5483871 L25.1612903,21.8270968 C23.6729032,20.7954839 21.5006452,19.9174194 18.32,19.5458065 L19.336129,12.4322581 C19.3483871,12.3464516 19.3548387,12.2593548 19.3548387,12.1722581 C19.3548387,11.1522581 18.5251613,10.3225806 17.5051613,10.3225806 L11.6129032,10.3225806 L11.6129032,4.51612903 C11.6129032,4.16064516 11.9025806,3.87096774 12.2580645,3.87096774 L17.4193548,3.87096774 C18.4864516,3.87096774 19.3548387,3.00258065 19.3548387,1.93548387 C19.3548387,0.868387097 18.4864516,0 17.4193548,0 L11.6129032,0 C9.47806452,0 7.74193548,1.73612903 7.74193548,3.87096774 L7.74193548,10.3225806 L1.84967742,10.3225806 C0.829677419,10.3225806 0,11.1522581 0,12.1722581 C0,12.2593548 0.0064516129,12.3464516 0.0187096774,12.4341935 L1.57354839,23.3167742 C0.04,25.1432258 0,26.9445161 0,27.0967742 C0,28.2219355 0.727741935,29.1703226 1.73354839,29.5232258 C1.45419355,29.9354839 1.29032258,30.4329032 1.29032258,30.9677419 C1.29032258,31.6554839 1.56451613,32.2767742 2.00451613,32.74 C0.810967742,33.4 0,34.6709677 0,36.1290323 C0,38.263871 1.73612903,40 3.87096774,40 L23.2258065,40 L24.516129,40 L40,40 L40,26.4516129 L40,25.8064516 L40,23.8709677 C40,22.803871 39.1316129,21.9354839 38.0645161,21.9354839 Z M34.1935484,13.5483871 C34.1935484,13.1929032 34.4832258,12.9032258 34.8387097,12.9032258 L36.1290323,12.9032258 C36.4845161,12.9032258 36.7741935,13.1929032 36.7741935,13.5483871 L36.7741935,21.9354839 L34.1935484,21.9354839 L34.1935484,13.5483871 Z M30.3225806,13.5483871 C30.3225806,13.1929032 30.6122581,12.9032258 30.9677419,12.9032258 L32.2580645,12.9032258 C32.6135484,12.9032258 32.9032258,13.1929032 32.9032258,13.5483871 L32.9032258,21.9354839 L30.3225806,21.9354839 L30.3225806,13.5483871 Z M26.4516129,13.5483871 C26.4516129,13.1929032 26.7412903,12.9032258 27.0967742,12.9032258 L28.3870968,12.9032258 C28.7425806,12.9032258 29.0322581,13.1929032 29.0322581,13.5483871 L29.0322581,21.9354839 L26.4516129,21.9354839 L26.4516129,13.5483871 Z M16.1290323,1.29032258 L17.4193548,1.29032258 C17.7748387,1.29032258 18.0645161,1.58 18.0645161,1.93548387 C18.0645161,2.29096774 17.7748387,2.58064516 17.4193548,2.58064516 L16.1290323,2.58064516 L16.1290323,1.29032258 Z M13.5483871,1.29032258 L14.8387097,1.29032258 L14.8387097,2.58064516 L13.5483871,2.58064516 L13.5483871,1.29032258 Z M9.03225806,3.87096774 C9.03225806,2.44774194 10.1896774,1.29032258 11.6129032,1.29032258 L12.2580645,1.29032258 L12.2580645,2.58064516 C11.1909677,2.58064516 10.3225806,3.44903226 10.3225806,4.51612903 L10.3225806,10.3225806 L9.03225806,10.3225806 L9.03225806,3.87096774 Z M1.38903226,12.9032258 L1.29612903,12.2535484 C1.29225806,12.2264516 1.29032258,12.1993548 1.29032258,12.1722581 C1.29032258,11.863871 1.54129032,11.6129032 1.84967742,11.6129032 L7.74193548,11.6129032 L11.6129032,11.6129032 L17.5051613,11.6129032 C17.8135484,11.6129032 18.0645161,11.863871 18.0645161,12.1722581 C18.0645161,12.1993548 18.0625806,12.2264516 18.0593548,12.2516129 L17.9658065,12.9032258 L16.1290323,12.9032258 L16.1290323,14.1935484 L17.7812903,14.1935484 L17.4129032,16.7741935 L1.94193548,16.7741935 L1.57354839,14.1935484 L14.8387097,14.1935484 L14.8387097,12.9032258 L1.38903226,12.9032258 Z M17.2290323,18.0645161 L17.0341935,19.4296774 C16.3432258,19.3819355 15.6154839,19.3548387 14.8387097,19.3548387 L13.5483871,19.3548387 C7.92645161,19.3548387 4.64258065,20.663871 2.71806452,22.2058065 L2.12645161,18.0645161 L17.2290323,18.0645161 Z M1.29032258,27.0967742 C1.29032258,27.0322581 1.43032258,20.6451613 13.5483871,20.6451613 L14.8387097,20.6451613 C26.8729032,20.6451613 27.0935484,26.8374194 27.0967742,27.0967742 C27.0967742,27.8083871 26.5180645,28.3870968 25.8064516,28.3870968 L25.1612903,28.3870968 L24.516129,28.3870968 L3.87096774,28.3870968 L2.58064516,28.3870968 C1.86903226,28.3870968 1.29032258,27.8083871 1.29032258,27.0967742 Z M3.87096774,32.2580645 C3.15935484,32.2580645 2.58064516,31.6793548 2.58064516,30.9677419 C2.58064516,30.256129 3.15935484,29.6774194 3.87096774,29.6774194 L24.516129,29.6774194 C25.2277419,29.6774194 25.8064516,30.256129 25.8064516,30.9677419 C25.8064516,31.6793548 25.2277419,32.2580645 24.516129,32.2580645 L3.87096774,32.2580645 Z M21.8232258,33.5483871 L19.176129,36.6367742 L12.116129,33.5483871 L21.8232258,33.5483871 Z M24.516129,38.7096774 L23.2258065,38.7096774 L3.87096774,38.7096774 C2.44774194,38.7096774 1.29032258,37.5522581 1.29032258,36.1290323 C1.29032258,34.7058065 2.44774194,33.5483871 3.87096774,33.5483871 L8.89741935,33.5483871 L19.5335484,38.2019355 L23.5225806,33.5483871 L24.516129,33.5483871 C25.9393548,33.5483871 27.0967742,34.7058065 27.0967742,36.1290323 C27.0967742,37.5522581 25.9393548,38.7096774 24.516129,38.7096774 Z M26.3832258,32.74 C26.8225806,32.2767742 27.0967742,31.6554839 27.0967742,30.9677419 C27.0967742,30.4954839 26.96,30.0587097 26.7380645,29.6774194 L36.1290323,29.6774194 L36.1290323,36.1290323 L28.3870968,36.1290323 C28.3870968,35.676129 28.3045161,35.2432258 28.1612903,34.8387097 L32.2580645,34.8387097 L32.2580645,33.5483871 L27.3935484,33.5483871 C27.1045161,33.2264516 26.7645161,32.9509677 26.3832258,32.74 Z M38.7096774,25.8064516 L37.4193548,25.8064516 L37.4193548,27.0967742 L38.7096774,27.0967742 L38.7096774,38.7096774 L27.3935484,38.7096774 C27.7283871,38.3367742 27.9909677,37.9006452 28.1612903,37.4193548 L37.4193548,37.4193548 L37.4193548,28.3870968 L28.0283871,28.3870968 C28.2503226,28.0058065 28.3870968,27.5690323 28.3870968,27.0967742 L36.1290323,27.0967742 L36.1290323,25.8064516 L28.1683871,25.8064516 C27.9587097,25.0890323 27.5445161,24.1580645 26.7367742,23.2258065 L38.0645161,23.2258065 C38.42,23.2258065 38.7096774,23.5148387 38.7096774,23.8709677 L38.7096774,25.8064516 Z M33.5483871,33.5483871 L34.8387097,33.5483871 L34.8387097,34.8387097 L33.5483871,34.8387097 L33.5483871,33.5483871 Z M8.38709677,21.9354839 L9.67741935,21.9354839 L9.67741935,23.2258065 L8.38709677,23.2258065 L8.38709677,21.9354839 Z M10.9677419,23.2258065 L12.2580645,23.2258065 L12.2580645,24.516129 L10.9677419,24.516129 L10.9677419,23.2258065 Z M13.5483871,21.9354839 L14.8387097,21.9354839 L14.8387097,23.2258065 L13.5483871,23.2258065 L13.5483871,21.9354839 Z M17.4193548,23.8709677 L18.7096774,23.8709677 L18.7096774,25.1612903 L17.4193548,25.1612903 L17.4193548,23.8709677 Z M20.6451613,21.9354839 L21.9354839,21.9354839 L21.9354839,23.2258065 L20.6451613,23.2258065 L20.6451613,21.9354839 Z M4.51612903,24.516129 L5.80645161,24.516129 L5.80645161,25.8064516 L4.51612903,25.8064516 L4.51612903,24.516129 Z"></path>
            </mask>
            <path d="M38.0645161,21.9354839 L38.0645161,13.5483871 C38.0645161,12.4812903 37.196129,11.6129032 36.1290323,11.6129032 L34.8387097,11.6129032 C34.3412903,11.6129032 33.8916129,11.8070968 33.5483871,12.116129 C33.2051613,11.8064516 32.7554839,11.6129032 32.2580645,11.6129032 L30.9677419,11.6129032 C30.4703226,11.6129032 30.0206452,11.8070968 29.6774194,12.116129 C29.3341935,11.8064516 28.8845161,11.6129032 28.3870968,11.6129032 L27.0967742,11.6129032 C26.0296774,11.6129032 25.1612903,12.4812903 25.1612903,13.5483871 L25.1612903,21.8270968 C23.6729032,20.7954839 21.5006452,19.9174194 18.32,19.5458065 L19.336129,12.4322581 C19.3483871,12.3464516 19.3548387,12.2593548 19.3548387,12.1722581 C19.3548387,11.1522581 18.5251613,10.3225806 17.5051613,10.3225806 L11.6129032,10.3225806 L11.6129032,4.51612903 C11.6129032,4.16064516 11.9025806,3.87096774 12.2580645,3.87096774 L17.4193548,3.87096774 C18.4864516,3.87096774 19.3548387,3.00258065 19.3548387,1.93548387 C19.3548387,0.868387097 18.4864516,0 17.4193548,0 L11.6129032,0 C9.47806452,0 7.74193548,1.73612903 7.74193548,3.87096774 L7.74193548,10.3225806 L1.84967742,10.3225806 C0.829677419,10.3225806 0,11.1522581 0,12.1722581 C0,12.2593548 0.0064516129,12.3464516 0.0187096774,12.4341935 L1.57354839,23.3167742 C0.04,25.1432258 0,26.9445161 0,27.0967742 C0,28.2219355 0.727741935,29.1703226 1.73354839,29.5232258 C1.45419355,29.9354839 1.29032258,30.4329032 1.29032258,30.9677419 C1.29032258,31.6554839 1.56451613,32.2767742 2.00451613,32.74 C0.810967742,33.4 0,34.6709677 0,36.1290323 C0,38.263871 1.73612903,40 3.87096774,40 L23.2258065,40 L24.516129,40 L40,40 L40,26.4516129 L40,25.8064516 L40,23.8709677 C40,22.803871 39.1316129,21.9354839 38.0645161,21.9354839 Z M34.1935484,13.5483871 C34.1935484,13.1929032 34.4832258,12.9032258 34.8387097,12.9032258 L36.1290323,12.9032258 C36.4845161,12.9032258 36.7741935,13.1929032 36.7741935,13.5483871 L36.7741935,21.9354839 L34.1935484,21.9354839 L34.1935484,13.5483871 Z M30.3225806,13.5483871 C30.3225806,13.1929032 30.6122581,12.9032258 30.9677419,12.9032258 L32.2580645,12.9032258 C32.6135484,12.9032258 32.9032258,13.1929032 32.9032258,13.5483871 L32.9032258,21.9354839 L30.3225806,21.9354839 L30.3225806,13.5483871 Z M26.4516129,13.5483871 C26.4516129,13.1929032 26.7412903,12.9032258 27.0967742,12.9032258 L28.3870968,12.9032258 C28.7425806,12.9032258 29.0322581,13.1929032 29.0322581,13.5483871 L29.0322581,21.9354839 L26.4516129,21.9354839 L26.4516129,13.5483871 Z M16.1290323,1.29032258 L17.4193548,1.29032258 C17.7748387,1.29032258 18.0645161,1.58 18.0645161,1.93548387 C18.0645161,2.29096774 17.7748387,2.58064516 17.4193548,2.58064516 L16.1290323,2.58064516 L16.1290323,1.29032258 Z M13.5483871,1.29032258 L14.8387097,1.29032258 L14.8387097,2.58064516 L13.5483871,2.58064516 L13.5483871,1.29032258 Z M9.03225806,3.87096774 C9.03225806,2.44774194 10.1896774,1.29032258 11.6129032,1.29032258 L12.2580645,1.29032258 L12.2580645,2.58064516 C11.1909677,2.58064516 10.3225806,3.44903226 10.3225806,4.51612903 L10.3225806,10.3225806 L9.03225806,10.3225806 L9.03225806,3.87096774 Z M1.38903226,12.9032258 L1.29612903,12.2535484 C1.29225806,12.2264516 1.29032258,12.1993548 1.29032258,12.1722581 C1.29032258,11.863871 1.54129032,11.6129032 1.84967742,11.6129032 L7.74193548,11.6129032 L11.6129032,11.6129032 L17.5051613,11.6129032 C17.8135484,11.6129032 18.0645161,11.863871 18.0645161,12.1722581 C18.0645161,12.1993548 18.0625806,12.2264516 18.0593548,12.2516129 L17.9658065,12.9032258 L16.1290323,12.9032258 L16.1290323,14.1935484 L17.7812903,14.1935484 L17.4129032,16.7741935 L1.94193548,16.7741935 L1.57354839,14.1935484 L14.8387097,14.1935484 L14.8387097,12.9032258 L1.38903226,12.9032258 Z M17.2290323,18.0645161 L17.0341935,19.4296774 C16.3432258,19.3819355 15.6154839,19.3548387 14.8387097,19.3548387 L13.5483871,19.3548387 C7.92645161,19.3548387 4.64258065,20.663871 2.71806452,22.2058065 L2.12645161,18.0645161 L17.2290323,18.0645161 Z M1.29032258,27.0967742 C1.29032258,27.0322581 1.43032258,20.6451613 13.5483871,20.6451613 L14.8387097,20.6451613 C26.8729032,20.6451613 27.0935484,26.8374194 27.0967742,27.0967742 C27.0967742,27.8083871 26.5180645,28.3870968 25.8064516,28.3870968 L25.1612903,28.3870968 L24.516129,28.3870968 L3.87096774,28.3870968 L2.58064516,28.3870968 C1.86903226,28.3870968 1.29032258,27.8083871 1.29032258,27.0967742 Z M3.87096774,32.2580645 C3.15935484,32.2580645 2.58064516,31.6793548 2.58064516,30.9677419 C2.58064516,30.256129 3.15935484,29.6774194 3.87096774,29.6774194 L24.516129,29.6774194 C25.2277419,29.6774194 25.8064516,30.256129 25.8064516,30.9677419 C25.8064516,31.6793548 25.2277419,32.2580645 24.516129,32.2580645 L3.87096774,32.2580645 Z M21.8232258,33.5483871 L19.176129,36.6367742 L12.116129,33.5483871 L21.8232258,33.5483871 Z M24.516129,38.7096774 L23.2258065,38.7096774 L3.87096774,38.7096774 C2.44774194,38.7096774 1.29032258,37.5522581 1.29032258,36.1290323 C1.29032258,34.7058065 2.44774194,33.5483871 3.87096774,33.5483871 L8.89741935,33.5483871 L19.5335484,38.2019355 L23.5225806,33.5483871 L24.516129,33.5483871 C25.9393548,33.5483871 27.0967742,34.7058065 27.0967742,36.1290323 C27.0967742,37.5522581 25.9393548,38.7096774 24.516129,38.7096774 Z M26.3832258,32.74 C26.8225806,32.2767742 27.0967742,31.6554839 27.0967742,30.9677419 C27.0967742,30.4954839 26.96,30.0587097 26.7380645,29.6774194 L36.1290323,29.6774194 L36.1290323,36.1290323 L28.3870968,36.1290323 C28.3870968,35.676129 28.3045161,35.2432258 28.1612903,34.8387097 L32.2580645,34.8387097 L32.2580645,33.5483871 L27.3935484,33.5483871 C27.1045161,33.2264516 26.7645161,32.9509677 26.3832258,32.74 Z M38.7096774,25.8064516 L37.4193548,25.8064516 L37.4193548,27.0967742 L38.7096774,27.0967742 L38.7096774,38.7096774 L27.3935484,38.7096774 C27.7283871,38.3367742 27.9909677,37.9006452 28.1612903,37.4193548 L37.4193548,37.4193548 L37.4193548,28.3870968 L28.0283871,28.3870968 C28.2503226,28.0058065 28.3870968,27.5690323 28.3870968,27.0967742 L36.1290323,27.0967742 L36.1290323,25.8064516 L28.1683871,25.8064516 C27.9587097,25.0890323 27.5445161,24.1580645 26.7367742,23.2258065 L38.0645161,23.2258065 C38.42,23.2258065 38.7096774,23.5148387 38.7096774,23.8709677 L38.7096774,25.8064516 Z M33.5483871,33.5483871 L34.8387097,33.5483871 L34.8387097,34.8387097 L33.5483871,34.8387097 L33.5483871,33.5483871 Z M8.38709677,21.9354839 L9.67741935,21.9354839 L9.67741935,23.2258065 L8.38709677,23.2258065 L8.38709677,21.9354839 Z M10.9677419,23.2258065 L12.2580645,23.2258065 L12.2580645,24.516129 L10.9677419,24.516129 L10.9677419,23.2258065 Z M13.5483871,21.9354839 L14.8387097,21.9354839 L14.8387097,23.2258065 L13.5483871,23.2258065 L13.5483871,21.9354839 Z M17.4193548,23.8709677 L18.7096774,23.8709677 L18.7096774,25.1612903 L17.4193548,25.1612903 L17.4193548,23.8709677 Z M20.6451613,21.9354839 L21.9354839,21.9354839 L21.9354839,23.2258065 L20.6451613,23.2258065 L20.6451613,21.9354839 Z M4.51612903,24.516129 L5.80645161,24.516129 L5.80645161,25.8064516 L4.51612903,25.8064516 L4.51612903,24.516129 Z" fill="#000000" fill-rule="nonzero"></path>
        </g>
    </g>
</svg>

<svg width="40" height="40" viewBox="0 0 40 40" xmlns="http://www.w3.org/2000/svg">
    <title>
        filter-category-13
    </title>
    <path d="M38.065 21.935v-8.387a1.938 1.938 0 0 0-1.936-1.935h-1.29c-.498 0-.947.194-1.29.503a1.92 1.92 0 0 0-1.29-.503h-1.291c-.498 0-.947.194-1.29.503a1.92 1.92 0 0 0-1.29-.503h-1.291a1.938 1.938 0 0 0-1.936 1.935v8.28c-1.488-1.033-3.66-1.91-6.841-2.282l1.016-7.114a1.852 1.852 0 0 0-1.831-2.11h-5.892V4.517c0-.355.29-.645.645-.645h5.161a1.938 1.938 0 0 0 1.936-1.936A1.938 1.938 0 0 0 17.419 0h-5.806a3.875 3.875 0 0 0-3.871 3.871v6.452H1.85a1.852 1.852 0 0 0-1.831 2.111l1.555 10.883C.04 25.143 0 26.945 0 27.097c0 1.125.728 2.073 1.734 2.426a2.568 2.568 0 0 0 .27 3.217A3.873 3.873 0 0 0 0 36.129 3.875 3.875 0 0 0 3.871 40H40V23.871a1.938 1.938 0 0 0-1.935-1.936zm-3.871-8.387c0-.355.29-.645.645-.645h1.29c.356 0 .645.29.645.645v8.387h-2.58v-8.387zm-3.871 0c0-.355.29-.645.645-.645h1.29c.356 0 .645.29.645.645v8.387h-2.58v-8.387zm-3.871 0c0-.355.29-.645.645-.645h1.29c.356 0 .645.29.645.645v8.387h-2.58v-8.387zM16.129 1.29h1.29a.646.646 0 0 1 0 1.29h-1.29V1.29zm-2.58 0h1.29v1.29h-1.29V1.29zM9.031 3.871a2.583 2.583 0 0 1 2.58-2.58h.646v1.29a1.938 1.938 0 0 0-1.935 1.935v5.807h-1.29V3.87zM1.39 12.903l-.093-.65a.56.56 0 0 1 .554-.64H17.505a.56.56 0 0 1 .554.639l-.093.651h-1.837v1.29h1.652l-.368 2.581H1.942l-.368-2.58h13.265v-1.29H1.389zm15.84 5.162l-.195 1.365a31.75 31.75 0 0 0-2.195-.075h-1.29c-5.623 0-8.906 1.309-10.83 2.85l-.593-4.14H17.23zM1.29 27.097c0-.065.14-6.452 12.258-6.452h1.29c12.035 0 12.256 6.192 12.259 6.452 0 .711-.579 1.29-1.29 1.29H2.58c-.712 0-1.29-.579-1.29-1.29zm2.581 5.161c-.712 0-1.29-.579-1.29-1.29 0-.712.578-1.29 1.29-1.29h20.645c.712 0 1.29.578 1.29 1.29 0 .711-.578 1.29-1.29 1.29H3.871zm17.952 1.29l-2.647 3.089-7.06-3.089h9.707zm2.693 5.162H3.871a2.583 2.583 0 0 1-2.58-2.581 2.583 2.583 0 0 1 2.58-2.58h5.026l10.637 4.653 3.989-4.654h.993a2.583 2.583 0 0 1 2.58 2.581 2.583 2.583 0 0 1-2.58 2.58zm1.867-5.97c.44-.463.714-1.085.714-1.772 0-.473-.137-.91-.359-1.29h9.391v6.451h-7.742c0-.453-.082-.886-.226-1.29h4.097v-1.29h-4.864a3.895 3.895 0 0 0-1.01-.809zm12.327-6.934h-1.29v1.29h1.29V38.71H27.394c.334-.373.597-.81.767-1.29h9.258v-9.033h-9.39c.221-.381.358-.818.358-1.29h7.742v-1.29h-7.96a6.911 6.911 0 0 0-1.432-2.581h11.328c.355 0 .645.289.645.645v1.935zm-5.162 7.742h1.29v1.29h-1.29v-1.29zM8.388 21.935h1.29v1.29h-1.29v-1.29zm2.58 1.29h1.29v1.291h-1.29v-1.29zm2.58-1.29h1.29v1.29h-1.29v-1.29zm3.871 1.936h1.29v1.29h-1.29v-1.29zm3.226-1.936h1.29v1.29h-1.29v-1.29zM4.516 24.516h1.29v1.29h-1.29v-1.29z" fill="#000" fill-rule="nonzero"/>
</svg>
